service_area.svg

<?xml version="1.0" encoding="iso-8859-1"?>
<!-- Generator: Adobe Illustrator 19.0.0, SVG Export Plug-In . SVG Version: 6.00 Build 0)  -->
<svg version="1.1" id="Layer_1" xmlns="http://www.w3.org/2000/svg" xmlns:xlink="http://www.w3.org/1999/xlink" x="0px" y="0px"
	 viewBox="0 0 460 460" style="enable-background:new 0 0 460 460;" xml:space="preserve">
<g>
	<circle style="fill:#7FB21E;" cx="230" cy="230" r="230"/>
	<path style="fill:#7FB21E;" d="M188.818,456.318l267.139-183.253C458.6,259.113,460,244.721,460,230C460,102.975,357.026,0,230,0
		S0,102.975,0,230C0,342.967,81.445,436.907,188.818,456.318z"/>
	<path style="fill:#557714;" d="M455.957,273.064L240.393,57.5L50,317.5l138.818,138.818C202.18,458.733,215.942,460,230,460
		C342.305,460,435.793,379.503,455.957,273.064z"/>
	<polygon style="fill:#FFC240;" points="130.393,57.5 130.393,87.5 194.393,97.5 184.393,57.5 	"/>
	<polygon style="fill:#FF984C;" points="240.393,57.5 184.393,57.5 184.393,97.5 240.393,87.5 	"/>
	<polygon style="fill:#FF984C;" points="104.393,87.5 104.393,132.5 194.393,132.5 184.393,87.5 	"/>
	<rect x="186.393" y="87.5" style="fill:#FF6E36;" width="78" height="45"/>
	<rect x="144.393" y="47.5" style="fill:#FF6E36;" width="20" height="85"/>
	<rect x="204.393" y="47.5" style="fill:#FF5347;" width="20" height="85"/>
	<polygon style="fill:#FF6E36;" points="40,267.5 50,267.5 60,277.5 50,287.5 40,287.5 	"/>
	<polygon style="fill:#FFFFFF;" points="420,257.5 430,257.5 430,287.5 420,287.5 410,272.5 	"/>
	<polygon style="fill:#FF5347;" points="76.286,122.5 50,237.5 50,297.5 184.393,304.765 194.393,213.632 184.393,122.5 	"/>
	<polygon style="fill:#FF1909;" points="312.5,210 292.5,122.5 184.393,122.5 184.393,304.765 235,307.5 420,297.5 420,237.5 	"/>
	<polygon style="fill:#FFF0CF;" points="194.393,210 291.984,210 276.556,142.5 194.393,142.5 	"/>
	<polygon style="fill:#FFFFFF;" points="174.393,142.5 92.23,142.5 76.802,210 174.393,210 	"/>
	<polygon style="fill:#FF1909;" points="50,297.5 50,317.5 185,317.5 195,307.5 185,297.5 	"/>
	<rect x="185" y="297.5" style="fill:#AA1106;" width="235" height="20"/>
	<path style="fill:#FF1909;" d="M117.5,257.5c-33.137,0-60,26.863-60,60h120C177.5,284.363,150.637,257.5,117.5,257.5z"/>
	<path style="fill:#AA1106;" d="M352.5,257.5c-33.137,0-60,26.863-60,60h120C412.5,284.363,385.637,257.5,352.5,257.5z"/>
	<path style="fill:#096C80;" d="M77.5,317.5c0,22.091,17.909,40,40,40l10-40l-10-40C95.409,277.5,77.5,295.409,77.5,317.5z"/>
	<path style="fill:#064855;" d="M117.5,277.5v80c22.091,0,40-17.909,40-40S139.591,277.5,117.5,277.5z"/>
	<path style="fill:#FFFFFF;" d="M97.5,317.5c0,11.046,8.954,20,20,20l10-20l-10-20C106.454,297.5,97.5,306.454,97.5,317.5z"/>
	<path style="fill:#89EBFF;" d="M117.5,297.5v40c11.046,0,20-8.954,20-20S128.546,297.5,117.5,297.5z"/>
	<path style="fill:#064855;" d="M312.5,317.5c0,22.091,17.909,40,40,40l10-40l-10-40C330.409,277.5,312.5,295.409,312.5,317.5z"/>
	<path style="fill:#03242B;" d="M352.5,277.5v80c22.091,0,40-17.909,40-40S374.591,277.5,352.5,277.5z"/>
	<path style="fill:#C4F5FF;" d="M332.5,317.5c0,11.046,8.954,20,20,20l10-20l-10-20C341.454,297.5,332.5,306.454,332.5,317.5z"/>
	<path style="fill:#4DE1FF;" d="M352.5,297.5v40c11.046,0,20-8.954,20-20S363.546,297.5,352.5,297.5z"/>
</g>
<g>
</g>
<g>
</g>
<g>
</g>
<g>
</g>
<g>
</g>
<g>
</g>
<g>
</g>
<g>
</g>
<g>
</g>
<g>
</g>
<g>
</g>
<g>
</g>
<g>
</g>
<g>
</g>
<g>
</g>
</svg>

<svg xmlns="http://www.w3.org/2000/svg" viewBox="0 0 300 300" width="300" height="300"><style>.a{fill:#7fb21e;}.b{fill:#ff984c;}.c{fill:#ff6e36;}.d{fill:#ff5347;}.e{fill:#fff;}.f{fill:#ff1909;}.g{fill:#aa1106;}.h{fill:#064855;}</style><g transform="scale(0.65217391 0.65217391)"><circle cx="230" cy="230" r="230" class="a"/><path d="M188.8 456.3 456 273.1C458.6 259.1 460 244.7 460 230 460 103 357 0 230 0 103 0 0 103 0 230 0 343 81.4 436.9 188.8 456.3Z" class="a"/><path d="M456 273.1 240.4 57.5 50 317.5 188.8 456.3C202.2 458.7 215.9 460 230 460 342.3 460 435.8 379.5 456 273.1Z" fill="#557714"/><polygon points="130.4 57.5 130.4 87.5 194.4 97.5 184.4 57.5 " fill="#ffc240"/><polygon points="240.4 57.5 184.4 57.5 184.4 97.5 240.4 87.5 " class="b"/><polygon points="104.4 87.5 104.4 132.5 194.4 132.5 184.4 87.5 " class="b"/><rect x="186.4" y="87.5" width="78" height="45" class="c"/><rect x="144.4" y="47.5" width="20" height="85" class="c"/><rect x="204.4" y="47.5" width="20" height="85" class="d"/><polygon points="50 287.5 40 287.5 40 267.5 50 267.5 60 277.5 " class="c"/><polygon points="420 287.5 410 272.5 420 257.5 430 257.5 430 287.5 " class="e"/><polygon points="50 297.5 184.4 304.8 194.4 213.6 184.4 122.5 76.3 122.5 50 237.5 " class="d"/><polygon points="292.5 122.5 184.4 122.5 184.4 304.8 235 307.5 420 297.5 420 237.5 312.5 210 " class="f"/><polygon points="194.4 210 292 210 276.6 142.5 194.4 142.5 " fill="#fff0cf"/><polygon points="174.4 142.5 92.2 142.5 76.8 210 174.4 210 " class="e"/><polygon points="195 307.5 185 297.5 50 297.5 50 317.5 185 317.5 " class="f"/><rect x="185" y="297.5" width="235" height="20" class="g"/><path d="m117.5 257.5c-33.1 0-60 26.9-60 60l120 0c0-33.1-26.9-60-60-60z" class="f"/><path d="m352.5 257.5c-33.1 0-60 26.9-60 60l120 0c0-33.1-26.9-60-60-60z" class="g"/><path d="m77.5 317.5c0 22.1 17.9 40 40 40l10-40-10-40c-22.1 0-40 17.9-40 40z" fill="#096c80"/><path d="m117.5 277.5 0 80c22.1 0 40-17.9 40-40 0-22.1-17.9-40-40-40z" class="h"/><path d="m97.5 317.5c0 11 9 20 20 20l10-20-10-20c-11 0-20 9-20 20z" class="e"/><path d="m117.5 297.5 0 40c11 0 20-9 20-20 0-11-9-20-20-20z" fill="#89ebff"/><path d="m312.5 317.5c0 22.1 17.9 40 40 40l10-40-10-40c-22.1 0-40 17.9-40 40z" class="h"/><path d="m352.5 277.5 0 80c22.1 0 40-17.9 40-40 0-22.1-17.9-40-40-40z" fill="#03242b"/><path d="m332.5 317.5c0 11 9 20 20 20l10-20-10-20c-11 0-20 9-20 20z" fill="#c4f5ff"/><path d="m352.5 297.5 0 40c11 0 20-9 20-20 0-11-9-20-20-20z" fill="#4de1ff"/></g></svg>
